images/3235021.svg

<?xml version="1.0" encoding="UTF-8"?>
<svg xmlns="http://www.w3.org/2000/svg" xmlns:xlink="http://www.w3.org/1999/xlink" width="300pt" height="300pt" viewBox="0 0 300 300" version="1.1">
<defs>
<g>
<symbol overflow="visible" id="glyph0-0">
<path style="stroke:none;" d="M 0.546875 1.9375 L 0.546875 -7.75 L 6.046875 -7.75 L 6.046875 1.9375 Z M 1.171875 1.328125 L 5.4375 1.328125 L 5.4375 -7.140625 L 1.171875 -7.140625 Z M 1.171875 1.328125 "/>
</symbol>
<symbol overflow="visible" id="glyph0-1">
<path style="stroke:none;" d="M 1.078125 -8.015625 L 2.546875 -8.015625 L 6.09375 -1.3125 L 6.09375 -8.015625 L 7.15625 -8.015625 L 7.15625 0 L 5.6875 0 L 2.125 -6.703125 L 2.125 0 L 1.078125 0 Z M 1.078125 -8.015625 "/>
</symbol>
<symbol overflow="visible" id="glyph0-2">
<path style="stroke:none;" d="M 4.328125 -7.28125 C 3.546875 -7.28125 2.921875 -6.984375 2.453125 -6.390625 C 1.992188 -5.804688 1.765625 -5.007812 1.765625 -4 C 1.765625 -2.988281 1.992188 -2.1875 2.453125 -1.59375 C 2.921875 -1.007812 3.546875 -0.71875 4.328125 -0.71875 C 5.117188 -0.71875 5.742188 -1.007812 6.203125 -1.59375 C 6.660156 -2.1875 6.890625 -2.988281 6.890625 -4 C 6.890625 -5.007812 6.660156 -5.804688 6.203125 -6.390625 C 5.742188 -6.984375 5.117188 -7.28125 4.328125 -7.28125 Z M 4.328125 -8.171875 C 5.453125 -8.171875 6.351562 -7.789062 7.03125 -7.03125 C 7.707031 -6.28125 8.046875 -5.269531 8.046875 -4 C 8.046875 -2.738281 7.707031 -1.726562 7.03125 -0.96875 C 6.351562 -0.21875 5.453125 0.15625 4.328125 0.15625 C 3.203125 0.15625 2.300781 -0.21875 1.625 -0.96875 C 0.957031 -1.71875 0.625 -2.726562 0.625 -4 C 0.625 -5.269531 0.957031 -6.28125 1.625 -7.03125 C 2.300781 -7.789062 3.203125 -8.171875 4.328125 -8.171875 Z M 4.328125 -8.171875 "/>
</symbol>
</g>
</defs>
<g id="surface52909">
<rect x="0" y="0" width="300" height="300" style="fill:rgb(100%,100%,100%);fill-opacity:1;stroke:none;"/>
<path style="fill:none;stroke-width:1.2;stroke-linecap:butt;stroke-linejoin:miter;stroke:rgb(0%,0%,0%);stroke-opacity:1;stroke-miterlimit:10;" d="M 40.351562 221.34375 L 50.234375 212.285156 "/>
<path style="fill:none;stroke-width:1.2;stroke-linecap:butt;stroke-linejoin:miter;stroke:rgb(0%,0%,100%);stroke-opacity:1;stroke-miterlimit:10;" d="M 50.234375 212.285156 L 60.121094 203.222656 "/>
<path style="fill:none;stroke-width:1.2;stroke-linecap:butt;stroke-linejoin:miter;stroke:rgb(0%,0%,100%);stroke-opacity:1;stroke-miterlimit:10;" d="M 60.121094 203.222656 L 73.261719 205.898438 "/>
<path style="fill:none;stroke-width:1.2;stroke-linecap:butt;stroke-linejoin:miter;stroke:rgb(0%,0%,0%);stroke-opacity:1;stroke-miterlimit:10;" d="M 73.261719 205.898438 L 86.402344 208.570312 "/>
<path style="fill:none;stroke-width:1.2;stroke-linecap:butt;stroke-linejoin:miter;stroke:rgb(0%,0%,0%);stroke-opacity:1;stroke-miterlimit:10;" d="M 57.085938 176.578125 L 58.605469 189.902344 "/>
<path style="fill:none;stroke-width:1.2;stroke-linecap:butt;stroke-linejoin:miter;stroke:rgb(0%,0%,100%);stroke-opacity:1;stroke-miterlimit:10;" d="M 58.605469 189.902344 L 60.121094 203.222656 "/>
<path style=" stroke:none;fill-rule:nonzero;fill:rgb(100%,100%,100%);fill-opacity:1;" d="M 56.121094 196.722656 L 64.121094 196.722656 L 64.121094 209.722656 L 56.121094 209.722656 Z M 56.121094 196.722656 "/>
<g style="fill:rgb(0%,0%,100%);fill-opacity:1;">
  <use xlink:href="#glyph0-1" x="56.121094" y="206.624023"/>
</g>
<path style="fill:none;stroke-width:1.2;stroke-linecap:butt;stroke-linejoin:miter;stroke:rgb(0%,0%,0%);stroke-opacity:1;stroke-miterlimit:10;" d="M 86.402344 208.570312 L 99.609375 185.226562 "/>
<path style="fill:none;stroke-width:1.2;stroke-linecap:butt;stroke-linejoin:miter;stroke:rgb(0%,0%,0%);stroke-opacity:1;stroke-miterlimit:10;" d="M 82.230469 203.128906 L 92.796875 184.453125 "/>
<path style="fill:none;stroke-width:1.2;stroke-linecap:butt;stroke-linejoin:miter;stroke:rgb(0%,0%,0%);stroke-opacity:1;stroke-miterlimit:10;" d="M 99.609375 185.226562 L 81.488281 165.453125 "/>
<path style="fill:none;stroke-width:1.2;stroke-linecap:butt;stroke-linejoin:miter;stroke:rgb(0%,0%,0%);stroke-opacity:1;stroke-miterlimit:10;" d="M 99.609375 185.226562 L 126.253906 182.1875 "/>
<path style="fill:none;stroke-width:1.2;stroke-linecap:butt;stroke-linejoin:miter;stroke:rgb(0%,0%,0%);stroke-opacity:1;stroke-miterlimit:10;" d="M 81.488281 165.453125 L 84.058594 138.757812 "/>
<path style="fill:none;stroke-width:1.2;stroke-linecap:butt;stroke-linejoin:miter;stroke:rgb(0%,0%,0%);stroke-opacity:1;stroke-miterlimit:10;" d="M 75.464844 162.179688 L 77.519531 140.824219 "/>
<path style="fill:none;stroke-width:1.2;stroke-linecap:butt;stroke-linejoin:miter;stroke:rgb(0%,0%,0%);stroke-opacity:1;stroke-miterlimit:10;" d="M 57.085938 176.578125 L 81.488281 165.453125 "/>
<path style="fill:none;stroke-width:1.2;stroke-linecap:butt;stroke-linejoin:miter;stroke:rgb(0%,0%,0%);stroke-opacity:1;stroke-miterlimit:10;" d="M 84.058594 138.757812 L 62.222656 123.183594 "/>
<path style="fill:none;stroke-width:1.2;stroke-linecap:butt;stroke-linejoin:miter;stroke:rgb(0%,0%,0%);stroke-opacity:1;stroke-miterlimit:10;" d="M 62.222656 123.183594 L 37.820312 134.308594 "/>
<path style="fill:none;stroke-width:1.2;stroke-linecap:butt;stroke-linejoin:miter;stroke:rgb(0%,0%,0%);stroke-opacity:1;stroke-miterlimit:10;" d="M 62.398438 130.039062 L 42.875 138.9375 "/>
<path style="fill:none;stroke-width:1.2;stroke-linecap:butt;stroke-linejoin:miter;stroke:rgb(0%,0%,0%);stroke-opacity:1;stroke-miterlimit:10;" d="M 37.820312 134.308594 L 35.25 161.003906 "/>
<path style="fill:none;stroke-width:1.2;stroke-linecap:butt;stroke-linejoin:miter;stroke:rgb(0%,0%,0%);stroke-opacity:1;stroke-miterlimit:10;" d="M 35.25 161.003906 L 57.085938 176.578125 "/>
<path style="fill:none;stroke-width:1.2;stroke-linecap:butt;stroke-linejoin:miter;stroke:rgb(0%,0%,0%);stroke-opacity:1;stroke-miterlimit:10;" d="M 41.097656 157.425781 L 58.566406 169.882812 "/>
<path style="fill:none;stroke-width:1.2;stroke-linecap:butt;stroke-linejoin:miter;stroke:rgb(0%,0%,0%);stroke-opacity:1;stroke-miterlimit:10;" d="M 126.253906 182.1875 L 134.230469 192.96875 "/>
<path style="fill:none;stroke-width:1.2;stroke-linecap:butt;stroke-linejoin:miter;stroke:rgb(0%,0%,100%);stroke-opacity:1;stroke-miterlimit:10;" d="M 134.230469 192.96875 L 142.210938 203.746094 "/>
<path style="fill:none;stroke-width:1.2;stroke-linecap:butt;stroke-linejoin:miter;stroke:rgb(0%,0%,0%);stroke-opacity:1;stroke-miterlimit:10;" d="M 132.921875 180.589844 L 139.304688 189.214844 "/>
<path style="fill:none;stroke-width:1.2;stroke-linecap:butt;stroke-linejoin:miter;stroke:rgb(0%,0%,100%);stroke-opacity:1;stroke-miterlimit:10;" d="M 139.304688 189.214844 L 145.6875 197.835938 "/>
<path style="fill:none;stroke-width:1.2;stroke-linecap:butt;stroke-linejoin:miter;stroke:rgb(0%,0%,0%);stroke-opacity:1;stroke-miterlimit:10;" d="M 136.949219 157.59375 L 126.253906 182.1875 "/>
<path style="fill:none;stroke-width:1.2;stroke-linecap:butt;stroke-linejoin:miter;stroke:rgb(0%,0%,100%);stroke-opacity:1;stroke-miterlimit:10;" d="M 142.210938 203.746094 L 155.53125 202.226562 "/>
<path style="fill:none;stroke-width:1.2;stroke-linecap:butt;stroke-linejoin:miter;stroke:rgb(0%,0%,0%);stroke-opacity:1;stroke-miterlimit:10;" d="M 155.53125 202.226562 L 168.855469 200.710938 "/>
<path style=" stroke:none;fill-rule:nonzero;fill:rgb(100%,100%,100%);fill-opacity:1;" d="M 138.210938 197.246094 L 146.210938 197.246094 L 146.210938 210.246094 L 138.210938 210.246094 Z M 138.210938 197.246094 "/>
<g style="fill:rgb(0%,0%,100%);fill-opacity:1;">
  <use xlink:href="#glyph0-1" x="138.210938" y="207.147461"/>
</g>
<path style="fill:none;stroke-width:1.2;stroke-linecap:butt;stroke-linejoin:miter;stroke:rgb(0%,0%,0%);stroke-opacity:1;stroke-miterlimit:10;" d="M 168.855469 200.710938 L 184.808594 222.269531 "/>
<path style="fill:none;stroke-width:1.2;stroke-linecap:butt;stroke-linejoin:miter;stroke:rgb(0%,0%,0%);stroke-opacity:1;stroke-miterlimit:10;" d="M 175.523438 199.113281 L 188.285156 216.359375 "/>
<path style="fill:none;stroke-width:1.2;stroke-linecap:butt;stroke-linejoin:miter;stroke:rgb(0%,0%,0%);stroke-opacity:1;stroke-miterlimit:10;" d="M 179.546875 176.113281 L 168.855469 200.710938 "/>
<path style="fill:none;stroke-width:1.2;stroke-linecap:butt;stroke-linejoin:miter;stroke:rgb(0%,0%,0%);stroke-opacity:1;stroke-miterlimit:10;" d="M 184.808594 222.269531 L 198.132812 220.75 "/>
<path style="fill:none;stroke-width:1.2;stroke-linecap:butt;stroke-linejoin:miter;stroke:rgb(0%,0%,100%);stroke-opacity:1;stroke-miterlimit:10;" d="M 198.132812 220.75 L 211.457031 219.230469 "/>
<path style="fill:none;stroke-width:1.2;stroke-linecap:butt;stroke-linejoin:miter;stroke:rgb(0%,0%,100%);stroke-opacity:1;stroke-miterlimit:10;" d="M 211.457031 219.230469 L 216.804688 206.933594 "/>
<path style="fill:none;stroke-width:1.2;stroke-linecap:butt;stroke-linejoin:miter;stroke:rgb(0%,0%,0%);stroke-opacity:1;stroke-miterlimit:10;" d="M 216.804688 206.933594 L 222.148438 194.636719 "/>
<path style="fill:none;stroke-width:1.2;stroke-linecap:butt;stroke-linejoin:miter;stroke:rgb(0%,0%,100%);stroke-opacity:1;stroke-miterlimit:10;" d="M 206.738281 214.253906 L 211.015625 204.417969 "/>
<path style="fill:none;stroke-width:1.2;stroke-linecap:butt;stroke-linejoin:miter;stroke:rgb(0%,0%,0%);stroke-opacity:1;stroke-miterlimit:10;" d="M 211.015625 204.417969 L 215.292969 194.578125 "/>
<path style=" stroke:none;fill-rule:nonzero;fill:rgb(100%,100%,100%);fill-opacity:1;" d="M 207.457031 212.730469 L 215.457031 212.730469 L 215.457031 225.730469 L 207.457031 225.730469 Z M 207.457031 212.730469 "/>
<g style="fill:rgb(0%,0%,100%);fill-opacity:1;">
  <use xlink:href="#glyph0-1" x="207.457031" y="222.631836"/>
</g>
<path style="fill:none;stroke-width:1.2;stroke-linecap:butt;stroke-linejoin:miter;stroke:rgb(0%,0%,0%);stroke-opacity:1;stroke-miterlimit:10;" d="M 222.148438 194.636719 L 214.171875 183.855469 "/>
<path style="fill:none;stroke-width:1.2;stroke-linecap:butt;stroke-linejoin:miter;stroke:rgb(0%,0%,100%);stroke-opacity:1;stroke-miterlimit:10;" d="M 214.171875 183.855469 L 206.195312 173.078125 "/>
<path style="fill:none;stroke-width:1.2;stroke-linecap:butt;stroke-linejoin:miter;stroke:rgb(0%,0%,0%);stroke-opacity:1;stroke-miterlimit:10;" d="M 222.148438 194.636719 L 235.472656 193.117188 "/>
<path style="fill:none;stroke-width:1.2;stroke-linecap:butt;stroke-linejoin:miter;stroke:rgb(100%,0%,0%);stroke-opacity:1;stroke-miterlimit:10;" d="M 235.472656 193.117188 L 248.796875 191.597656 "/>
<path style="fill:none;stroke-width:1.2;stroke-linecap:butt;stroke-linejoin:miter;stroke:rgb(0%,0%,100%);stroke-opacity:1;stroke-miterlimit:10;" d="M 206.195312 173.078125 L 192.871094 174.59375 "/>
<path style="fill:none;stroke-width:1.2;stroke-linecap:butt;stroke-linejoin:miter;stroke:rgb(0%,0%,0%);stroke-opacity:1;stroke-miterlimit:10;" d="M 192.871094 174.59375 L 179.546875 176.113281 "/>
<path style="fill:none;stroke-width:1.2;stroke-linecap:butt;stroke-linejoin:miter;stroke:rgb(0%,0%,100%);stroke-opacity:1;stroke-miterlimit:10;" d="M 204.246094 179.648438 L 193.585938 180.867188 "/>
<path style="fill:none;stroke-width:1.2;stroke-linecap:butt;stroke-linejoin:miter;stroke:rgb(0%,0%,0%);stroke-opacity:1;stroke-miterlimit:10;" d="M 193.585938 180.867188 L 182.929688 182.082031 "/>
<path style=" stroke:none;fill-rule:nonzero;fill:rgb(100%,100%,100%);fill-opacity:1;" d="M 202.195312 166.578125 L 210.195312 166.578125 L 210.195312 179.578125 L 202.195312 179.578125 Z M 202.195312 166.578125 "/>
<g style="fill:rgb(0%,0%,100%);fill-opacity:1;">
  <use xlink:href="#glyph0-1" x="202.195312" y="176.479492"/>
</g>
<path style="fill:none;stroke-width:1.2;stroke-linecap:butt;stroke-linejoin:miter;stroke:rgb(0%,0%,0%);stroke-opacity:1;stroke-miterlimit:10;" d="M 179.546875 176.113281 L 171.570312 165.335938 "/>
<path style="fill:none;stroke-width:1.2;stroke-linecap:butt;stroke-linejoin:miter;stroke:rgb(0%,0%,100%);stroke-opacity:1;stroke-miterlimit:10;" d="M 171.570312 165.335938 L 163.59375 154.554688 "/>
<path style="fill:none;stroke-width:1.2;stroke-linecap:butt;stroke-linejoin:miter;stroke:rgb(0%,0%,100%);stroke-opacity:1;stroke-miterlimit:10;" d="M 163.59375 154.554688 L 150.273438 156.074219 "/>
<path style="fill:none;stroke-width:1.2;stroke-linecap:butt;stroke-linejoin:miter;stroke:rgb(0%,0%,0%);stroke-opacity:1;stroke-miterlimit:10;" d="M 150.273438 156.074219 L 136.949219 157.59375 "/>
<path style="fill:none;stroke-width:1.2;stroke-linecap:butt;stroke-linejoin:miter;stroke:rgb(0%,0%,100%);stroke-opacity:1;stroke-miterlimit:10;" d="M 163.59375 154.554688 L 168.941406 142.257812 "/>
<path style="fill:none;stroke-width:1.2;stroke-linecap:butt;stroke-linejoin:miter;stroke:rgb(0%,0%,0%);stroke-opacity:1;stroke-miterlimit:10;" d="M 168.941406 142.257812 L 174.289062 129.960938 "/>
<path style=" stroke:none;fill-rule:nonzero;fill:rgb(100%,100%,100%);fill-opacity:1;" d="M 159.59375 148.054688 L 167.59375 148.054688 L 167.59375 161.054688 L 159.59375 161.054688 Z M 159.59375 148.054688 "/>
<g style="fill:rgb(0%,0%,100%);fill-opacity:1;">
  <use xlink:href="#glyph0-1" x="159.59375" y="157.956055"/>
</g>
<path style="fill:none;stroke-width:1.2;stroke-linecap:butt;stroke-linejoin:miter;stroke:rgb(0%,0%,0%);stroke-opacity:1;stroke-miterlimit:10;" d="M 139.484375 155.714844 L 131.507812 144.9375 "/>
<path style="fill:none;stroke-width:1.2;stroke-linecap:butt;stroke-linejoin:miter;stroke:rgb(100%,0%,0%);stroke-opacity:1;stroke-miterlimit:10;" d="M 131.507812 144.9375 L 123.53125 134.160156 "/>
<path style="fill:none;stroke-width:1.2;stroke-linecap:butt;stroke-linejoin:miter;stroke:rgb(0%,0%,0%);stroke-opacity:1;stroke-miterlimit:10;" d="M 134.410156 159.46875 L 126.433594 148.691406 "/>
<path style="fill:none;stroke-width:1.2;stroke-linecap:butt;stroke-linejoin:miter;stroke:rgb(100%,0%,0%);stroke-opacity:1;stroke-miterlimit:10;" d="M 126.433594 148.691406 L 118.457031 137.914062 "/>
<path style=" stroke:none;fill-rule:nonzero;fill:rgb(100%,100%,100%);fill-opacity:1;" d="M 111.996094 129.535156 L 120.996094 129.535156 L 120.996094 142.535156 L 111.996094 142.535156 Z M 111.996094 129.535156 "/>
<g style="fill:rgb(100%,0%,0%);fill-opacity:1;">
  <use xlink:href="#glyph0-2" x="111.996094" y="139.436523"/>
</g>
<path style="fill:none;stroke-width:1.2;stroke-linecap:butt;stroke-linejoin:miter;stroke:rgb(0%,0%,0%);stroke-opacity:1;stroke-miterlimit:10;" d="M 174.289062 129.960938 L 200.933594 126.921875 "/>
<path style="fill:none;stroke-width:1.2;stroke-linecap:butt;stroke-linejoin:miter;stroke:rgb(0%,0%,0%);stroke-opacity:1;stroke-miterlimit:10;" d="M 200.933594 126.921875 L 211.628906 102.328125 "/>
<path style="fill:none;stroke-width:1.2;stroke-linecap:butt;stroke-linejoin:miter;stroke:rgb(0%,0%,0%);stroke-opacity:1;stroke-miterlimit:10;" d="M 211.628906 102.328125 L 216.972656 90.03125 "/>
<path style="fill:none;stroke-width:1.2;stroke-linecap:butt;stroke-linejoin:miter;stroke:rgb(0%,0%,100%);stroke-opacity:1;stroke-miterlimit:10;" d="M 216.972656 90.03125 L 222.320312 77.730469 "/>
<path style="fill:none;stroke-width:1.2;stroke-linecap:butt;stroke-linejoin:miter;stroke:rgb(0%,0%,0%);stroke-opacity:1;stroke-miterlimit:10;" d="M 218.484375 102.382812 L 222.761719 92.546875 "/>
<path style="fill:none;stroke-width:1.2;stroke-linecap:butt;stroke-linejoin:miter;stroke:rgb(0%,0%,100%);stroke-opacity:1;stroke-miterlimit:10;" d="M 222.761719 92.546875 L 227.039062 82.707031 "/>
<path style="fill:none;stroke-width:1.2;stroke-linecap:butt;stroke-linejoin:miter;stroke:rgb(0%,0%,0%);stroke-opacity:1;stroke-miterlimit:10;" d="M 206.910156 97.351562 L 211.1875 87.515625 "/>
<path style="fill:none;stroke-width:1.2;stroke-linecap:butt;stroke-linejoin:miter;stroke:rgb(0%,0%,100%);stroke-opacity:1;stroke-miterlimit:10;" d="M 211.1875 87.515625 L 215.464844 77.675781 "/>
<path style=" stroke:none;fill-rule:nonzero;fill:rgb(100%,100%,100%);fill-opacity:1;" d="M 218.320312 71.230469 L 226.320312 71.230469 L 226.320312 84.230469 L 218.320312 84.230469 Z M 218.320312 71.230469 "/>
<g style="fill:rgb(0%,0%,100%);fill-opacity:1;">
  <use xlink:href="#glyph0-1" x="218.320312" y="81.131836"/>
</g>
<path style="fill:none;stroke-width:1.2;stroke-linecap:butt;stroke-linejoin:miter;stroke:rgb(100%,0%,0%);stroke-opacity:1;stroke-miterlimit:10;" d="M 248.796875 191.597656 L 256.773438 202.375 "/>
<path style="fill:none;stroke-width:1.2;stroke-linecap:butt;stroke-linejoin:miter;stroke:rgb(0%,0%,0%);stroke-opacity:1;stroke-miterlimit:10;" d="M 256.773438 202.375 L 264.75 213.15625 "/>
<path style=" stroke:none;fill-rule:nonzero;fill:rgb(100%,100%,100%);fill-opacity:1;" d="M 244.796875 185.097656 L 253.796875 185.097656 L 253.796875 198.097656 L 244.796875 198.097656 Z M 244.796875 185.097656 "/>
<g style="fill:rgb(100%,0%,0%);fill-opacity:1;">
  <use xlink:href="#glyph0-2" x="244.796875" y="194.999023"/>
</g>
</g>
</svg>

<svg xmlns="http://www.w3.org/2000/svg" xmlns:xlink="http://www.w3.org/1999/xlink" width="300pt" height="300pt" viewBox="0 0 300 300"><defs><symbol overflow="visible"><path d="M.547 1.938V-7.75h5.5v9.688zm.625-.61h4.266v-8.47H1.171zm0 0"/></symbol><symbol overflow="visible" id="a"><path d="M1.078-8.016h1.47l3.546 6.704v-6.704h1.062V0H5.688L2.124-6.703V0H1.078zm0 0"/></symbol><symbol overflow="visible" id="b"><path d="M4.328-7.28c-.78 0-1.406.296-1.875.89-.46.585-.687 1.382-.687 2.39 0 1.012.226 1.813.687 2.406.47.586 1.094.875 1.875.875.79 0 1.414-.288 1.875-.874.457-.593.688-1.394.688-2.406 0-1.008-.23-1.805-.687-2.39-.46-.594-1.086-.89-1.875-.89zm0-.892c1.125 0 2.024.383 2.703 1.14C7.708-6.28 8.048-5.27 8.048-4c0 1.262-.34 2.273-1.016 3.03C6.353-.22 5.454.157 4.33.157S2.3-.22 1.625-.97c-.668-.75-1-1.757-1-3.03 0-1.27.332-2.28 1-3.03.676-.76 1.578-1.142 2.703-1.142zm0 0"/></symbol></defs><g><path fill="#fff" d="M0 0h300v300H0z"/><path d="M40.352 221.344l9.882-9.06" stroke-width="1.2" stroke="#000" stroke-miterlimit="10" fill="none"/><path d="M50.234 212.285l9.887-9.062M60.12 203.223l13.142 2.675" stroke-width="1.2" stroke="#00f" stroke-miterlimit="10" fill="none"/><path d="M73.262 205.898l13.14 2.672M57.086 176.578l1.52 13.324" stroke-width="1.2" stroke="#000" stroke-miterlimit="10" fill="none"/><path d="M58.605 189.902l1.516 13.32" stroke-width="1.2" stroke="#00f" stroke-miterlimit="10" fill="none"/><path d="M56.12 196.723h8v13h-8zm0 0" fill="#fff"/><use xlink:href="#a" x="56.121" y="206.624" fill="#00f"/><path d="M86.402 208.57l13.207-23.343M82.23 203.13l10.567-18.677M99.61 185.227l-18.122-19.774M99.61 185.227l26.644-3.04M81.488 165.453l2.57-26.695M75.465 162.18l2.055-21.356M57.086 176.578l24.402-11.125M84.06 138.758l-21.837-15.574M62.223 123.184L37.82 134.31M62.398 130.04l-19.523 8.898M37.82 134.31l-2.57 26.694M35.25 161.004l21.836 15.574M41.098 157.426l17.468 12.457M126.254 182.188l7.976 10.78" stroke-width="1.2" stroke="#000" stroke-miterlimit="10" fill="none"/><path d="M134.23 192.97l7.98 10.776" stroke-width="1.2" stroke="#00f" stroke-miterlimit="10" fill="none"/><path d="M132.922 180.59l6.383 8.625" stroke-width="1.2" stroke="#000" stroke-miterlimit="10" fill="none"/><path d="M139.305 189.215l6.382 8.62" stroke-width="1.2" stroke="#00f" stroke-miterlimit="10" fill="none"/><path d="M136.95 157.594l-10.696 24.594" stroke-width="1.2" stroke="#000" stroke-miterlimit="10" fill="none"/><path d="M142.21 203.746l13.32-1.52" stroke-width="1.2" stroke="#00f" stroke-miterlimit="10" fill="none"/><path d="M155.53 202.227l13.325-1.516" stroke-width="1.2" stroke="#000" stroke-miterlimit="10" fill="none"/><path d="M138.21 197.246h8v13h-8zm0 0" fill="#fff"/><use xlink:href="#a" x="138.211" y="207.147" fill="#00f"/><path d="M168.855 200.71l15.954 21.56M175.523 199.113l12.762 17.246M179.547 176.113l-10.692 24.598M184.81 222.27l13.323-1.52" stroke-width="1.2" stroke="#000" stroke-miterlimit="10" fill="none"/><path d="M198.133 220.75l13.324-1.52M211.457 219.23l5.348-12.296" stroke-width="1.2" stroke="#00f" stroke-miterlimit="10" fill="none"/><path d="M216.805 206.934l5.343-12.297" stroke-width="1.2" stroke="#000" stroke-miterlimit="10" fill="none"/><path d="M206.738 214.254l4.278-9.836" stroke-width="1.2" stroke="#00f" stroke-miterlimit="10" fill="none"/><path d="M211.016 204.418l4.277-9.84" stroke-width="1.2" stroke="#000" stroke-miterlimit="10" fill="none"/><path d="M207.457 212.73h8v13h-8zm0 0" fill="#fff"/><use xlink:href="#a" x="207.457" y="222.632" fill="#00f"/><path d="M222.148 194.637l-7.976-10.782" stroke-width="1.2" stroke="#000" stroke-miterlimit="10" fill="none"/><path d="M214.172 183.855l-7.977-10.777" stroke-width="1.2" stroke="#00f" stroke-miterlimit="10" fill="none"/><path d="M222.148 194.637l13.325-1.52" stroke-width="1.2" stroke="#000" stroke-miterlimit="10" fill="none"/><path d="M235.473 193.117l13.324-1.52" stroke-width="1.2" stroke="#f00" stroke-miterlimit="10" fill="none"/><path d="M206.195 173.078l-13.324 1.516" stroke-width="1.2" stroke="#00f" stroke-miterlimit="10" fill="none"/><path d="M192.87 174.594l-13.323 1.52" stroke-width="1.2" stroke="#000" stroke-miterlimit="10" fill="none"/><path d="M204.246 179.648l-10.66 1.22" stroke-width="1.2" stroke="#00f" stroke-miterlimit="10" fill="none"/><path d="M193.586 180.867l-10.656 1.215" stroke-width="1.2" stroke="#000" stroke-miterlimit="10" fill="none"/><path d="M202.195 166.578h8v13h-8zm0 0" fill="#fff"/><use xlink:href="#a" x="202.195" y="176.479" fill="#00f"/><path d="M179.547 176.113l-7.977-10.777" stroke-width="1.2" stroke="#000" stroke-miterlimit="10" fill="none"/><path d="M171.57 165.336l-7.976-10.78M163.594 154.555l-13.32 1.52" stroke-width="1.2" stroke="#00f" stroke-miterlimit="10" fill="none"/><path d="M150.273 156.074l-13.324 1.52" stroke-width="1.2" stroke="#000" stroke-miterlimit="10" fill="none"/><path d="M163.594 154.555l5.347-12.297" stroke-width="1.2" stroke="#00f" stroke-miterlimit="10" fill="none"/><path d="M168.94 142.258l5.35-12.297" stroke-width="1.2" stroke="#000" stroke-miterlimit="10" fill="none"/><path d="M159.594 148.055h8v13h-8zm0 0" fill="#fff"/><use xlink:href="#a" x="159.594" y="157.956" fill="#00f"/><path d="M139.484 155.715l-7.976-10.778" stroke-width="1.2" stroke="#000" stroke-miterlimit="10" fill="none"/><path d="M131.508 144.938l-7.977-10.778" stroke-width="1.2" stroke="#f00" stroke-miterlimit="10" fill="none"/><path d="M134.41 159.47l-7.976-10.78" stroke-width="1.2" stroke="#000" stroke-miterlimit="10" fill="none"/><path d="M126.434 148.69l-7.977-10.776" stroke-width="1.2" stroke="#f00" stroke-miterlimit="10" fill="none"/><path d="M111.996 129.535h9v13h-9zm0 0" fill="#fff"/><use xlink:href="#b" x="111.996" y="139.437" fill="#f00"/><path d="M174.29 129.96l26.644-3.038M200.934 126.922l10.695-24.594M211.63 102.328l5.343-12.297" stroke-width="1.2" stroke="#000" stroke-miterlimit="10" fill="none"/><path d="M216.973 90.03l5.347-12.3" stroke-width="1.2" stroke="#00f" stroke-miterlimit="10" fill="none"/><path d="M218.484 102.383l4.278-9.836" stroke-width="1.2" stroke="#000" stroke-miterlimit="10" fill="none"/><path d="M222.762 92.547l4.277-9.84" stroke-width="1.2" stroke="#00f" stroke-miterlimit="10" fill="none"/><path d="M206.91 97.352l4.278-9.836" stroke-width="1.2" stroke="#000" stroke-miterlimit="10" fill="none"/><path d="M211.188 87.516l4.277-9.84" stroke-width="1.2" stroke="#00f" stroke-miterlimit="10" fill="none"/><path d="M218.32 71.23h8v13h-8zm0 0" fill="#fff"/><use xlink:href="#a" x="218.32" y="81.132" fill="#00f"/><path d="M248.797 191.598l7.976 10.777" stroke-width="1.2" stroke="#f00" stroke-miterlimit="10" fill="none"/><path d="M256.773 202.375l7.977 10.78" stroke-width="1.2" stroke="#000" stroke-miterlimit="10" fill="none"/><path d="M244.797 185.098h9v13h-9zm0 0" fill="#fff"/><use xlink:href="#b" x="244.797" y="194.999" fill="#f00"/></g></svg>
